X:10
T:The Fair Flower of Northumberland
Z:Jack Campin, http://www.campin.me.uk/
S:Northumbrian Minstrelsy
M:6/8
L:1/8
K:D
D    | F2  A    (A`F) A|(d`c) B A3 |\
       d e f     B2   A| B d  d d2
A    |(de) f     B B  A|(A`B) d e2  \
f/ e/| d B A ({c}d) F F| E2   D D2|]

